X: 1
T:Cruel Delaney
B:Joyce, P. W.; "Old Irish Folk Music and Songs"
R:song air
O:Irish
N:See #318 for notes on source
L:1/4
M:3/4
K:Eb
EEF|EE>B|c/>B/GF|EEz/B/|ee>d|cBG|cBB|B>z B|
eeG|AA z/c/|c> BA/G/|FFG/F/|Ee>c|B/c/G>E|FEE|E2||
